packages/foundations/assets/icons/functional/images/human/cigarette_disabled_16.svg

<svg width="16" height="16" viewBox="0 0 16 16" fill="none" xmlns="http://www.w3.org/2000/svg">
<g clip-path="url(#clip0_185_1118)">
<path fill-rule="evenodd" clip-rule="evenodd" d="M13.1106 1.78403C13.3603 1.54064 13.8783 1.5622 14.1666 1.85058C14.455 2.13897 14.4897 2.63526 14.2332 2.90659L7.53215 9.61595L13.3973 9.61627C13.7276 9.61627 13.8613 9.6534 13.9917 9.72312C14.1221 9.79284 14.2244 9.89516 14.2941 10.0255C14.328 10.0888 14.3995 10.2487 14.401 10.7848C14.4024 11.3208 14.33 11.5399 14.2941 11.607C14.2244 11.7374 14.1221 11.8397 13.9917 11.9094C13.8613 11.9791 13.7276 12.0163 13.3973 12.0163L5.13215 12.016L2.89127 14.2485C2.60464 14.4919 2.12366 14.4703 1.83527 14.182C1.54688 13.8936 1.50753 13.4149 1.76872 13.1259L13.1106 1.78403ZM3.90975 9.61595L1.79296 11.7336C1.60095 11.455 1.60095 11.3839 1.60095 10.8163C1.60095 10.2487 1.63808 10.1559 1.70781 10.0255C1.77753 9.89516 1.87985 9.79284 2.01022 9.72312C2.14059 9.6534 2.27428 9.61627 2.60464 9.61627L3.90975 9.61595ZM2.28176 1.8004C2.60405 1.49817 3.11032 1.51444 3.41254 1.83673C4.37613 2.86428 4.4429 4.06793 3.61662 5.18556L3.43867 5.41859C3.31789 5.59344 3.16491 5.88173 3.30919 6.30566C3.3495 6.42411 3.44671 6.58183 3.60082 6.77882C3.83464 7.10033 3.7979 7.55316 3.5004 7.83214C3.17811 8.13437 2.67184 8.1181 2.36961 7.79581C2.24576 7.66374 2.09196 7.45672 1.95121 7.17987C1.51592 6.32374 1.50741 5.35694 2.16035 4.45512L2.34553 4.21416C2.7022 3.72814 2.66767 3.38147 2.24543 2.93118C1.9432 2.60889 1.95947 2.10262 2.28176 1.8004Z" fill="#1A1C1F"/>
</g>
<defs>
<clipPath id="clip0_185_1118">
<rect width="16" height="16" fill="white"/>
</clipPath>
</defs>
</svg>

<svg xmlns="http://www.w3.org/2000/svg" width="16" height="16" fill="none"><g clip-path="url(#a)"><path fill="#1A1C1F" fill-rule="evenodd" d="M13.11 1.784c.25-.243.768-.222 1.057.067.288.288.323.784.066 1.056l-6.7 6.709h5.864c.33 0 .464.037.595.107q.196.106.302.302c.034.064.105.224.107.76.001.536-.071.755-.107.822a.73.73 0 0 1-.302.302c-.13.07-.264.107-.595.107H5.132l-2.24 2.233c-.287.243-.768.221-1.057-.067s-.327-.767-.066-1.056zm-9.2 7.832-2.117 2.118c-.192-.279-.192-.35-.192-.918 0-.567.037-.66.107-.79a.73.73 0 0 1 .302-.303c.13-.07.264-.107.595-.107zM2.282 1.8a.8.8 0 0 1 1.13.037c.964 1.027 1.03 2.23.205 3.349l-.178.233a.93.93 0 0 0-.13.887q.06.177.292.473A.8.8 0 0 1 2.37 7.796a2.7 2.7 0 0 1-.419-.616c-.435-.856-.444-1.823.21-2.725l.185-.24c.356-.487.322-.834-.1-1.284a.8.8 0 0 1 .036-1.13" clip-rule="evenodd"/></g><defs><clipPath id="a"><path fill="#fff" d="M0 0h16v16H0z"/></clipPath></defs></svg>
